X: 18
T: King Of The Fairies
Z: Malcolm Gordon
S: https://thesession.org/tunes/475#setting49183
R: hornpipe
M: 4/4
L: 1/8
K: Emin
|:B,2|"Em"E>DE>F G>FG>A|B>cB>A G>FG>A|Bz E2 E>FG>E|"D"F>GF>E "Bm"D2 B,2|
"Em"E>DE>F G>FG>A|"G"B>AG>B d2 c>B|"Em"c2 E>F G>F"Bm"E>D|"Em"E2 E>D E2:|
(3B^cd|"Em"e2e2 B>de>f|g>ag>f e2 e>f|e2 B2 B>AB>^c|"Bm"d>ed>^c B>c (3dcB|
"Em"e2B2 B>de>f|g>ag>f e2 e>f|"Bm"g>f (3efg f>e (3def|"Em"e2 e>d e2 e>f|
"G"g2 g>e "D"f2 f>d|"Em"e>dB>^c d2 "D"d>e|d>BA>F G>AB>^c|d>BA>F G>FE>D|
"Em"B2 E2 E>FG>A|B2 e2 e>de>f|e2 B2 "Bm"B>AG>F|"Em"E2 E>D E2||

